svg/OSM-icons/barrier #666666 °ffffff !label=enbarriers,deAbsperrungen/13004;barrier=border_crossing;!label=enborder crossing,deGrenz- übergang.svg

<svg xmlns="http://www.w3.org/2000/svg" viewBox="0 0 580 580" enable-background="new 0 0 580 580"><path fill="#111" stroke="#eee" stroke-width="3.408" d="m66.28 1.768c-41.34 0-64.57 21.371-64.57 65.04v450.12c0 40.844 20.895 62.23 62.19 62.23h452.02c41.31 0 62.23-20.315 62.23-62.23v-450.12c0-42.602-20.923-65.04-63.52-65.04-.003 0-448.5-.143-448.35 0z"/><g opacity=".8"><path fill="#fff" d="m290 547c-68.65 0-133.19-26.732-181.73-75.27-48.54-48.542-75.27-113.08-75.27-181.73 0-68.65 26.733-133.19 75.27-181.73 48.541-48.54 113.08-75.27 181.73-75.27 68.65 0 133.19 26.733 181.73 75.27 48.54 48.541 75.27 113.08 75.27 181.73 0 68.65-26.732 133.19-75.27 181.73s-113.08 75.27-181.73 75.27m0-468c-116.35 0-211 94.65-211 211s94.65 211 211 211 211-94.65 211-211-94.65-211-211-211"/></g><path fill="#fff" d="m464 290c0 14.912-12.09 27-27 27h-294c-14.912 0-27-12.09-27-27 0-14.912 12.09-27 27-27h294c14.912 0 27 12.09 27 27"/></svg>

<?xml version="1.0" encoding="utf-8"?>
<!-- Generator: Adobe Illustrator 15.0.0, SVG Export Plug-In . SVG Version: 6.00 Build 0)  -->
<!DOCTYPE svg PUBLIC "-//W3C//DTD SVG 1.1//EN" "http://www.w3.org/Graphics/SVG/1.1/DTD/svg11.dtd">
<svg version="1.1" xmlns="http://www.w3.org/2000/svg" xmlns:xlink="http://www.w3.org/1999/xlink" x="0px" y="0px" width="580px"
	 height="580px" viewBox="0 0 580 580" enable-background="new 0 0 580 580" xml:space="preserve">
<g id="Layer_1">
	<g id="Layer_2">
		<g id="g1327">
			<path id="path1329" fill="#111111" stroke="#EEEEEE" stroke-width="3.408" d="M66.275,1.768
				c-41.335,0-64.571,21.371-64.571,65.036v450.123c0,40.844,20.895,62.229,62.192,62.229h452.024
				c41.307,0,62.229-20.315,62.229-62.229V66.804c0-42.602-20.923-65.036-63.521-65.036C514.625,1.768,66.133,1.625,66.275,1.768z"
				/>
		</g>
	</g>
</g>
<g id="Layer_2_1_">
	<g opacity="0.8">
		<path fill="#FFFFFF" d="M290,547c-68.647,0-133.186-26.732-181.727-75.273C59.733,423.185,33,358.647,33,290
			c0-68.647,26.733-133.186,75.273-181.727C156.814,59.733,221.353,33,290,33c68.647,0,133.186,26.733,181.727,75.273
			C520.267,156.814,547,221.353,547,290c0,68.647-26.732,133.186-75.273,181.727S358.647,547,290,547z M290,79
			C173.654,79,79,173.654,79,290s94.654,211,211,211s211-94.654,211-211S406.345,79,290,79z"/>
	</g>
	<path fill="#FFFFFF" d="M464,290c0,14.912-12.088,27-27,27H143c-14.912,0-27-12.088-27-27l0,0c0-14.912,12.088-27,27-27h294
		C451.912,263,464,275.088,464,290L464,290z"/>
</g>
</svg>
